!!!!SEGMENT: T527_Mau-w4b1p97m32-45.krn
!!!COM: Martinů, Bohuslav (Jan)
!!!OTL: III: Allegro
!!!OMV: III: Allegro
!!!example: 527
!!!work: Mau-4
!!!AGN-sub: Programmatic
!!!OPR: Orchestral Suites Nos. 1 and 2 from Istar (Ishtar)
!!!filename: T527_Mau-w4b1p97m32-45.krn
**kern	**dynam	**kern	**dynam	**kern	**dynam	**kern	**dynam	**kern	**dynam	**kern	**dynam	**kern	**kern	**dynam	**kern	**dynam	**kern	**dynam	**kern	**dynam	**kern	**dynam	**kern	**dynam
*grp:A	*	*grp:A	*	*grp:A	*	*grp:A	*	*grp:A	*	*grp:A	*	*grp:A	*grp:A	*	*grp:B	*	*grp:B	*	*grp:B	*	*grp:B	*	*grp:B	*
*part12	*	*part11	*	*part10	*	*part9	*	*part8	*	*part7	*	*part6	*part6	*	*part5	*	*part4	*	*part3	*	*part2	*	*part1	*
*staff13	*	*staff12	*	*staff11	*	*staff10	*	*staff9	*	*staff8	*	*staff7	*staff6	*	*staff5	*	*staff4	*	*staff3	*	*staff2	*	*staff1	*
*ICstr	*	*ICstr	*	*ICstr	*	*ICstr	*	*ICstr	*	*ICstr	*	*ICstr	*	*	*ICidio	*	*ICww	*	*ICww	*	*ICww	*	*ICww	*
*Icello	*	*Iviola	*	*Ivioln	*	*Ivioln	*	*Ivioln	*	*Ivioln	*	*Iarpa	*	*	*Itimpa	*	*Ifagot	*	*Iclars	*	*Iflt	*	*Iflt	*
*I"Violoncello	*	*I"Viola	*	*I"Violin II divisi 2	*	*I"Violin II divisi 1	*	*I"Violin I divisi 2	*	*I"Violin I divisi 1	*	*I"Harp	*	*	*I"Timpani	*	*I"Bassoon 1	*	*I"Clarinet in Bb 1, 2	*	*I"Flute 3	*	*I"Flute 1, 2	*
*I'vc	*	*I'vla	*	*I'vn div	*	*I'vn div	*	*I'vn div	*	*I'vn div	*	*I'arp	*	*	*I'timp	*	*I'bn	*	*I'cl	*	*I'fl	*	*I'fl	*
*clefF4	*	*clefC3	*	*clefG2	*	*clefG2	*	*clefG2	*	*clefG2	*	*clefF4	*clefG2	*	*clefF4	*	*clefF4	*	*clefG2	*	*clefG2	*	*clefG2	*
*	*	*	*	*	*	*	*	*	*	*	*	*	*	*	*	*	*	*	*ITrd1c2	*	*	*	*	*
*k[]	*	*k[]	*	*k[]	*	*k[]	*	*k[]	*	*k[]	*	*k[]	*k[]	*	*k[]	*	*k[]	*	*k[]	*	*k[]	*	*k[]	*
*C:	*	*C:	*	*C:	*	*C:	*	*C:	*	*C:	*	*C:	*C:	*	*C:	*	*C:	*	*C:	*	*C:	*	*C:	*
*M2/4	*	*M2/4	*	*M2/4	*	*M2/4	*	*M2/4	*	*M2/4	*	*M2/4	*M2/4	*	*M3/4	*	*M3/4	*	*M3/4	*	*M3/4	*	*M3/4	*
!	!	!	!	!	!	!	!	!	!	!	!	!	!	!	!	!LO:DY:ed=brack	!	!LO:DY:ed=brack	!	!LO:DY:ed=brack	!	!LO:DY:ed=brack	!LO:TX:a:B:t=[Poco Meno]	!LO:DY:ed=brack
*Xtuplet	*	*Xtuplet	*	*Xtuplet	*	*Xtuplet	*	*Xtuplet	*	*Xtuplet	*	*Xtuplet	*Xtuplet	*	*Xtuplet	*	*Xtuplet	*	*Xtuplet	*	*Xtuplet	*	*Xtuplet	*
!LO:TX:a:t=[pizz.]	!LO:DY:ed=brack	!LO:TX:a:t=[pizz.]	!LO:DY:ed=brack	!LO:TX:a:t=[pizz.]	!LO:DY:ed=brack	!LO:TX:a:t=[pizz.]	!LO:DY:ed=brack	!LO:TX:a:t=pizz.	!	!	!	!	!LO:TX:a:B:t=[Poco Meno]	!	!	!	!	!	!	!	!	!	!	!
16%3FF	mf	16%3fL	f	16%3fL	f	16%3r	f	16%3fff	f	4%3r	.	4%3r	4%3r	.	4r	pp	[2.G	pp	[2.g [2.gg	pp	[2.g	pp	[2.gg	pp
16%3r	.	16%3fJ	.	16%3fJ	.	16%3cc	.	16%3r	.	.	.	.	.	.	.	.	.	.	.	.	.	.	.	.
.	.	.	.	.	.	.	.	.	.	.	.	.	.	.	8FFL	.	.	.	.	.	.	.	.	.
16%3r	.	16%3gL	.	16%3gL	.	16%3ddL	.	16%3ccc	.	.	.	.	.	.	8FFJ	.	.	.	.	.	.	.	.	.
.	.	.	.	.	.	.	.	.	.	.	.	.	.	.	4FF	.	.	.	.	.	.	.	.	.
16%3C	.	16%3cJ	.	16%3cJ	.	16%3ggJ	.	16%3r	.	.	.	.	.	.	.	.	.	.	.	.	.	.	.	.
=1	=1	=1	=1	=1	=1	=1	=1	=1	=1	=1	=1	=1	=1	=1	=1	=1	=1	=1	=1	=1	=1	=1	=1	=1
16%3F	.	16%3fL	.	16%3fL	.	16%3ff	.	16%3bb-XL	.	4%3r	.	4%3r	4%3r	.	4r	.	4G]	.	4g] 4gg]	.	4g]	.	4gg]	.
16%3r	.	16%3fJ	.	16%3fJ	.	16%3r	.	16%3dddJ	.	.	.	.	.	.	.	.	.	.	.	.	.	.	.	.
.	.	.	.	.	.	.	.	.	.	.	.	.	.	.	8FFL	.	(4B-X	.	(4b- 4bb-	.	(4b-X	.	(4bb-X	.
8%3r	.	16%3e-XL	.	16%3e-XL	.	16%3ee-XL	.	16%3cccL	.	.	.	.	.	.	8FFJ	.	.	.	.	.	.	.	.	.
.	.	.	.	.	.	.	.	.	.	.	.	.	.	.	4FF	.	8GL	.	8gL 8gg	.	8gL	.	8ggL	.
.	.	16%3B-XJ	.	16%3B-XJ	.	16%3bb-XJ	.	16%3ggJ	.	.	.	.	.	.	.	.	.	.	.	.	.	.	.	.
.	.	.	.	.	.	.	.	.	.	.	.	.	.	.	.	.	8FJ)	.	8fJ 8ff)	.	8fJ)	.	8ffJ)	.
=2	=2	=2	=2	=2	=2	=2	=2	=2	=2	=2	=2	=2	=2	=2	=2	=2	=2	=2	=2	=2	=2	=2	=2	=2
16%3F	.	16%3fL	.	16%3fL	.	16%3r	.	16%3fff	.	4%3r	.	4%3r	4%3r	.	4r	.	(8E-XL	.	(8e-L 8ee-	.	(8e-XL	.	(8ee-XL	.
.	.	.	.	.	.	.	.	.	.	.	.	.	.	.	.	.	8CJ	.	8cJ 8cc	.	8cJ	.	8ccJ	.
16%3r	.	16%3fJ	.	16%3fJ	.	16%3cc	.	16%3r	.	.	.	.	.	.	.	.	.	.	.	.	.	.	.	.
.	.	.	.	.	.	.	.	.	.	.	.	.	.	.	8FFL	.	4.BB-X)	.	4.B- 4.b-)	.	4.b-X)	.	4.b-X)	.
16%3r	.	16%3gL	.	16%3gL	.	16%3ddL	.	16%3ccc	.	.	.	.	.	.	8FFJ	.	.	.	.	.	.	.	.	.
.	.	.	.	.	.	.	.	.	.	.	.	.	.	.	4FF	.	.	.	.	.	.	.	.	.
16%3C	.	16%3cJ	.	16%3cJ	.	16%3ggJ	.	16%3r	.	.	.	.	.	.	.	.	.	.	.	.	.	.	.	.
.	.	.	.	.	.	.	.	.	.	.	.	.	.	.	.	.	(8GG	.	(8G 8g	.	(8g	.	(8g	.
=3	=3	=3	=3	=3	=3	=3	=3	=3	=3	=3	=3	=3	=3	=3	=3	=3	=3	=3	=3	=3	=3	=3	=3	=3
16%3F	.	16%3fL	.	16%3fL	.	16%3ff	.	16%3bb-XL	.	4%3r	.	4%3r	4%3r	.	4r	.	2C)	.	2c 2cc)	.	2c)	.	2cc)	.
16%3r	.	16%3fJ	.	16%3fJ	.	16%3r	.	16%3dddJ	.	.	.	.	.	.	.	.	.	.	.	.	.	.	.	.
.	.	.	.	.	.	.	.	.	.	.	.	.	.	.	8FFL	.	.	.	.	.	.	.	.	.
16%3C	.	16%3e-XL	.	16%3e-XL	.	16%3ee-XL	.	16%3cccL	.	.	.	.	.	.	8FFJ	.	.	.	.	.	.	.	.	.
.	.	.	.	.	.	.	.	.	.	.	.	.	.	.	4FF	.	(8DL	.	(8dL 8dd	.	(8dL	.	(8ddL	.
16%3r	.	16%3B-XJ	.	16%3B-XJ	.	16%3bb-XJ	.	16%3ggJ	.	.	.	.	.	.	.	.	.	.	.	.	.	.	.	.
.	.	.	.	.	.	.	.	.	.	.	.	.	.	.	.	.	8FJ	.	8fJ 8ff	.	8fJ	.	8ffJ	.
=4	=4	=4	=4	=4	=4	=4	=4	=4	=4	=4	=4	=4	=4	=4	=4	=4	=4	=4	=4	=4	=4	=4	=4	=4
*	*	*	*	*	*	*	*	*	*	*8va	*	*	*	*	*	*	*	*	*	*	*	*	*	*
!	!	!	!	!	!	!	!	!	!	!LO:TX:a:t=pizz.	!	!	!	!	!	!	!	!	!	!	!	!	!	!
16%3F	.	16%3fL	.	16%3fL	.	16%3r	.	16%3fff	.	16%3gggL	f	4%3r	4%3r	.	4r	.	2C)	.	2c 2cc)	.	2c)	.	2cc)	.
16%3r	.	16%3fJ	.	16%3fJ	.	16%3cc	.	16%3r	.	16%3bbb-XJ	.	.	.	.	.	.	.	.	.	.	.	.	.	.
.	.	.	.	.	.	.	.	.	.	.	.	.	.	.	8FFL	.	.	.	.	.	.	.	.	.
16%3r	.	16%3gL	.	16%3gL	.	16%3ddL	.	16%3ccc	.	16%3fff	.	.	.	.	8FFJ	.	.	.	.	.	.	.	.	.
.	.	.	.	.	.	.	.	.	.	.	.	.	.	.	4FF	.	(8BB-XL	.	(8B-L 8b-	.	4r	.	(8b-XL	.
16%3C	.	16%3cJ	.	16%3cJ	.	16%3ggJ	.	16%3r	.	16%3r	.	.	.	.	.	.	.	.	.	.	.	.	.	.
.	.	.	.	.	.	.	.	.	.	.	.	.	.	.	.	.	8GGJ	.	8GJ 8g	.	.	.	8gJ	.
=5	=5	=5	=5	=5	=5	=5	=5	=5	=5	=5	=5	=5	=5	=5	=5	=5	=5	=5	=5	=5	=5	=5	=5	=5
16%3F	.	16%3fL	.	16%3fL	.	16%3ff	.	16%3bb-XL	.	16%3eee-XL	.	4%3r	4%3r	.	4r	.	2C)	.	2c 2cc)	.	2c	.	2cc)	.
16%3r	.	16%3fJ	.	16%3fJ	.	16%3r	.	16%3dddJ	.	16%3gggJ	.	.	.	.	.	.	.	.	.	.	.	.	.	.
.	.	.	.	.	.	.	.	.	.	.	.	.	.	.	8FFL	.	.	.	.	.	.	.	.	.
16%3C	.	16%3e-XL	.	16%3e-XL	.	16%3ee-XL	.	16%3cccL	.	16%3fffL	.	.	.	.	8FFJ	.	.	.	.	.	.	.	.	.
.	.	.	.	.	.	.	.	.	.	.	.	.	.	.	4FF	.	(8DL	.	(8dL 8dd	.	(8dL	.	(8ddL	.
16%3r	.	16%3B-XJ	.	16%3B-XJ	.	16%3bb-XJ	.	16%3ggJ	.	16%3fffJ	.	.	.	.	.	.	.	.	.	.	.	.	.	.
.	.	.	.	.	.	.	.	.	.	.	.	.	.	.	.	.	8FJ	.	8fJ 8ff	.	8fJ	.	8ffJ	.
=6	=6	=6	=6	=6	=6	=6	=6	=6	=6	=6	=6	=6	=6	=6	=6	=6	=6	=6	=6	=6	=6	=6	=6	=6
16%3FF	.	16%3fL	.	16%3fL	.	16%3r	.	16%3fff	.	16%3gggL	.	4%3r	4%3r	.	4r	.	8GL)	.	8gL 8gg)	.	8gL)	.	8ggL)	.
.	.	.	.	.	.	.	.	.	.	.	.	.	.	.	.	.	8FJ	.	8fJ 8ff	.	8fJ	.	8ffJ	.
16%3r	.	16%3fJ	.	16%3fJ	.	16%3cc	.	16%3r	.	16%3bbb-XJ	.	.	.	.	.	.	.	.	.	.	.	.	.	.
.	.	.	.	.	.	.	.	.	.	.	.	.	.	.	8FFL	.	4D	.	4d 4dd	.	4d	.	4dd	.
16%3r	.	16%3gL	.	16%3gL	.	16%3ddL	.	16%3ccc	.	16%3fff	.	.	.	.	8FFJ	.	.	.	.	.	.	.	.	.
!	!	!	!	!	!	!	!	!	!	!	!	!	!	!	!	!	!LO:TUP:br	!	!LO:TUP:br	!	!	!	!LO:TUP:br	!
.	.	.	.	.	.	.	.	.	.	.	.	.	.	.	4FF	.	12CL	.	12cL 12cc	.	4r	.	12ccL	.
*	*	*	*	*	*	*	*	*	*	*	*	*	*	*	*	*	*	*	*	*	*	*	*	*
16%3C	.	16%3cJ	.	16%3cJ	.	16%3ggJ	.	16%3r	.	16%3r	.	.	.	.	.	.	.	.	.	.	.	.	.	.
.	.	.	.	.	.	.	.	.	.	.	.	.	.	.	.	.	12BB-X	.	12B- 12b-	.	.	.	12b-X	.
.	.	.	.	.	.	.	.	.	.	.	.	.	.	.	.	.	12GGJ	.	12GJ 12g	.	.	.	12gJ	.
*	*	*	*	*	*	*	*	*	*	*X8va	*	*	*	*	*	*	*	*	*	*	*	*	*	*
=7	=7	=7	=7	=7	=7	=7	=7	=7	=7	=7	=7	=7	=7	=7	=7	=7	=7	=7	=7	=7	=7	=7	=7	=7
16%3FF	.	16%3fL	.	16%3fL	.	16%3ff	.	16%3bb-XL	.	16%3eee-XL	.	4%3r	4%3r	.	4r	.	2C	.	2c 2cc	.	2c	.	2cc	.
16%3r	.	16%3fJ	.	16%3fJ	.	16%3r	.	16%3dddJ	.	16%3gggJ	.	.	.	.	.	.	.	.	.	.	.	.	.	.
.	.	.	.	.	.	.	.	.	.	.	.	.	.	.	8FFL	.	.	.	.	.	.	.	.	.
8%3r	.	16%3e-X	.	16%3e-X	.	16%3ee-X	.	16%3ccc	.	16%3fff	.	.	.	.	8FFJ	.	.	.	.	.	.	.	.	.
.	.	.	.	.	.	.	.	.	.	.	.	.	.	.	4FF	.	4r	.	4c#X 4cc#X	.	4c#X	.	4cc#X	.
.	.	16%3r	.	16%3r	.	16%3r	.	16%3r	.	16%3r	.	.	.	.	.	.	.	.	.	.	.	.	.	.
=	=	=	=	=	=	=	=	=	=	=	=	=	=	=	=	=	=	=	=	=	=	=	=	=
*	*	*Xtuplet	*	*	*	*	*	*	*	*	*	*	*	*	*	*	*	*	*	*	*	*	*	*
*^	*	*	*	*	*	*	*	*	*	*	*	*	*	*	*	*	*	*	*	*	*	*	*	*
!	!	!	!LO:TX:a:t=arco	!	!	!	!	!	!	!	!	!	!	!	!	!	!	!	!	!	!	!	!	!	!
!	!	!	!	!	!	!	!	!	!	!	!	!	!	!	!	!	!	!	!	!	!	!	!	!	!
*v	*v	*	*	*	*	*	*	*	*	*	*	*	*	*	*	*	*	*	*	*	*	*	*	*	*
*	*	*	*	*Xtuplet	*	*	*	*	*	*	*	*	*	*	*	*	*	*	*	*	*	*	*	*
*^	*	*	*	*	*	*	*	*	*	*	*	*	*	*	*	*	*	*	*	*	*	*	*	*
!	!	!	!	!	!	!	!	!	!	!	!	!	!	!	!	!	!	!	!	!	!	!	!	!	!
*v	*v	*	*	*	*	*	*	*	*	*	*	*	*	*	*	*	*	*	*	*	*	*	*	*	*
*	*	*	*	*	*	*Xtuplet	*	*	*	*	*	*	*	*	*	*	*	*	*	*	*	*	*	*
*^	*	*	*	*	*	*	*	*	*	*	*	*	*	*	*	*	*	*	*	*	*	*	*	*
!	!	!	!	!	!	!	!LO:TX:a:t=arco	!	!	!	!	!	!	!	!	!	!	!	!	!	!	!	!	!	!
!	!	!	!	!	!	!	!	!	!	!	!	!	!	!	!	!	!	!	!	!	!	!	!	!	!
*v	*v	*	*	*	*	*	*	*	*	*	*	*	*	*	*	*	*	*	*	*	*	*	*	*	*
*	*	*	*	*	*	*	*	*Xtuplet	*	*	*	*	*	*	*	*	*	*	*	*	*	*	*	*
*^	*	*	*	*	*	*	*	*	*	*	*	*	*	*	*	*	*	*	*	*	*	*	*	*
!	!	!	!	!	!	!	!	!	!	!	!	!	!	!	!	!	!	!	!	!	!	!	!	!	!
*v	*v	*	*	*	*	*	*	*	*	*	*	*	*	*	*	*	*	*	*	*	*	*	*	*	*
*	*	*	*	*	*	*	*	*	*	*Xtuplet	*	*	*	*	*	*	*	*	*	*	*	*	*	*
*^	*	*	*	*	*	*	*	*	*	*	*	*	*	*	*	*	*	*	*	*	*	*	*	*
!	!	!	!	!	!	!	!	!	!	!	!	!	!	!	!	!	!	!	!	!	!	!	!	!	!
!	!	!	!	!	!	!	!	!	!	!	!	!	!	!LO:TX:b:t=	!	!	!	!	!	!	!	!	!	!	!
*v	*v	*	*	*	*	*	*	*	*	*	*	*	*	*	*	*	*	*	*	*	*	*	*	*	*
*	*	*	*	*	*	*	*	*	*	*	*	*	*Xtuplet	*	*	*	*	*	*	*	*	*	*	*
*^	*	*	*	*	*	*	*	*	*	*	*	*	*	*	*	*	*	*	*	*	*	*	*	*
!	!	!	!	!	!	!	!	!	!	!	!	!	!	!	!	!	!	!	!	!	!	!	!	!	!
!	!	!	!	!	!	!	!	!	!	!	!	!	!	!LO:TX:t=[quarter]=120	!	!	!	!	!	!LO:TX:a:t=I.	!	!	!	!LO:TX:a:B:t=Poco allegro giusto	!
!	!	!	!	!	!	!	!	!	!	!	!LO:TX:a:t=arco	!	!	!LO:TX:a:B:t=Poco allegro giusto	!	!LO:TX:b:t=	!	!LO:TX:b:t=	!	!	!	!	!	!	!
*Xtuplet	*Xtuplet	*	*	*	*	*	*	*	*	*	*	*	*	*	*	*	*	*	*	*	*	*	*	*	*
*M3/4	*M3/4	*	*M3/4	*	*M3/4	*	*M3/4	*	*M3/4	*	*M3/4	*	*M3/4	*M3/4	*	*	*	*	*	*M2/4	*	*M2/4	*	*M2/4	*
6r	6r	.	3.B	mf	6r	.	3.b	mf	6r	.	3.b	mf	6BBB 6FF# 6BB	6r	f	2r	.	2r	.	4r	.	8f#XL	mf	8bL 8ff#X	mf
.	.	.	.	.	.	.	.	.	.	.	.	.	.	.	.	.	.	.	.	.	.	8f#J	.	8bJ 8ff#	.
!	!	!	!	!	!LO:TX:a:t=pizz.	!	!	!	!LO:TX:a:t=pizz.	!	!	!	!	!	!	!	!	!	!	!	!	!	!	!	!
6F#X 6B	6BB	.	.	.	6B 6d	mf	.	.	6B 6d	mf	.	.	6r	6r	.	.	.	.	.	.	.	.	.	.	.
.	.	.	.	.	.	.	.	.	.	.	.	.	.	.	.	.	.	.	.	4f#Xtt	p	8f#L	.	8bL 8ff#	.
6r	6r	.	.	.	6d 6b	.	.	.	6d 6b	.	.	.	6BBB 6FF# 6BB	6B 6d	.	.	.	.	.	.	.	.	.	.	.
.	.	.	.	.	.	.	.	.	.	.	.	.	.	.	.	.	.	.	.	.	.	8eJ	.	8eeJ 8aa	.
=	=	=	=	=	=	=	=	=	=	=	=	=	=	=	=	=	=	=	=	=	=	=	=	=	=
6r	6r	.	(6A	.	6r	.	(6a	.	6r	.	(6a	.	6EE 6BB	6E< 6B< 6e 6g 6b	.	2r	.	2r	.	4r	.	8f#XL	.	8bL 8ff#X	.
.	.	.	.	.	.	.	.	.	.	.	.	.	.	.	.	.	.	.	.	.	.	8f#J	.	8bJ 8ff#	.
6BB 6E	6EE	.	6G	.	6G 6e	.	6g	.	6G 6e	.	6g	.	6r	6r	.	.	.	.	.	.	.	.	.	.	.
.	.	.	.	.	.	.	.	.	.	.	.	.	.	.	.	.	.	.	.	4ett	.	8gL	.	8aL 8dd	.
6r	6r	.	6A)	.	6G 6e 6b	.	6a)	.	6G 6e 6b	.	6a)	.	6EE	6BB< 6E< 6B< 6e 6g 6b	.	.	.	.	.	.	.	.	.	.	.
.	.	.	.	.	.	.	.	.	.	.	.	.	.	.	.	.	.	.	.	.	.	8gJ	.	8aJ 8ee	.
=	=	=	=	=	=	=	=	=	=	=	=	=	=	=	=	=	=	=	=	=	=	=	=	=	=
6r	6r	.	3.B	.	6r	.	3.b	.	6r	.	3.b	.	6ryy	6BBB< 6FF#< 6BB< 6F#< 6B< 6d 6f#	.	2r	.	2r	.	4r	.	8f#XL	.	8bL 8ff#X	.
.	.	.	.	.	.	.	.	.	.	.	.	.	.	.	.	.	.	.	.	.	.	8f#J	.	8bJ 8ff#	.
6F#X 6B	6BB	.	.	.	6B 6d	.	.	.	6B 6d	.	.	.	6r	6r	.	.	.	.	.	.	.	.	.	.	.
.	.	.	.	.	.	.	.	.	.	.	.	.	.	.	.	.	.	.	.	4f#Xtt	.	8f#L	.	8bL 8ff#	.
6r	6r	.	.	.	6d 6b	.	.	.	6d 6b	.	.	.	6ryy	6BBB< 6FF#< 6BB< 6F#< 6B< 6d 6f#	.	.	.	.	.	.	.	.	.	.	.
.	.	.	.	.	.	.	.	.	.	.	.	.	.	.	.	.	.	.	.	.	.	8eJ	.	8eeJ 8aa	.
=	=	=	=	=	=	=	=	=	=	=	=	=	=	=	=	=	=	=	=	=	=	=	=	=	=
6r	6r	.	(6A	.	6r	.	(6a	.	6r	.	(6a	.	6EE	6BB< 6E< 6B< 6e 6g 6b	.	2r	.	2r	.	4r	.	8f#XL	.	8bL 8ff#X	.
.	.	.	.	.	.	.	.	.	.	.	.	.	.	.	.	.	.	.	.	.	.	8f#J	.	8bJ 8ff#	.
6BB 6E	6EE	.	6G	.	6G 6e	.	6g	.	6G 6e	.	6g	.	6r	6r	.	.	.	.	.	.	.	.	.	.	.
.	.	.	.	.	.	.	.	.	.	.	.	.	.	.	.	.	.	.	.	4ett	.	8gL	.	8aL 8dd	.
6r	6r	.	6A)	.	6G 6e 6b	.	6a)	.	6G 6e 6b	.	6a)	.	6EE	6BB< 6E< 6B< 6e 6g 6b	.	.	.	.	.	.	.	.	.	.	.
.	.	.	.	.	.	.	.	.	.	.	.	.	.	.	.	.	.	.	.	.	.	8gJ	.	8aJ 8ee	.
=	=	=	=	=	=	=	=	=	=	=	=	=	=	=	=	=	=	=	=	=	=	=	=	=	=
6r	6r	.	(6B	.	6r	.	(6b	.	6r	.	(6b	.	6ryy	6BBB< 6FF#< 6BB< 6F#< 6B< 6d 6f#	.	2r	.	2r	.	4r	.	8f#XL	.	8bL 8ff#X	.
.	.	.	.	.	.	.	.	.	.	.	.	.	.	.	.	.	.	.	.	.	.	8f#J	.	8bJ 8ff#	.
6F#X 6B	6BB	.	6.d	.	6B 6d	.	6.dd	.	6B 6d	.	6.dd	.	6BB	6F#< 6B< 6d 6f# 6b	.	.	.	.	.	.	.	.	.	.	.
.	.	.	.	.	.	.	.	.	.	.	.	.	.	.	.	.	.	.	.	4btt	.	8aL	.	8eeL 8aa	.
6r	6r	.	.	.	6d 6b	.	.	.	6d 6b	.	.	.	6r	6r	.	.	.	.	.	.	.	.	.	.	.
.	.	.	.	.	.	.	.	.	.	.	.	.	.	.	.	.	.	.	.	.	.	8gJ	.	8ff#XJ 8bb	.
.	.	.	12B)	.	.	.	12b)	.	.	.	12b)	.	.	.	.	.	.	.	.	.	.	.	.	.	.
=8	=8	=8	=8	=8	=8	=8	=8	=8	=8	=8	=8	=8	=8	=8	=8	=8	=8	=8	=8	=8	=8	=8	=8	=8	=8
6r	6r	.	(3A	.	6r	.	(3a	.	6r	.	(3a	.	6EE	6BB< 6E< 6G< 6B< 6e 6g	.	2r	.	2r	.	4r	.	8f#XL	.	8bL 8ff#X	.
.	.	.	.	.	.	.	.	.	.	.	.	.	.	.	.	.	.	.	.	.	.	8f#J	.	8bJ 8ff#	.
6BB 6E	6EE	.	.	.	6G 6e	.	.	.	6G 6e	.	.	.	6E 6G 6B	6e 6g 6b 6ee	.	.	.	.	.	.	.	.	.	.	.
.	.	.	.	.	.	.	.	.	.	.	.	.	.	.	.	.	.	.	.	4gTT	.	8gL	.	8aL 8ee	.
6r	6r	.	6G)	.	6G 6e 6b	.	6b)	.	6G 6e 6b	.	6b)	.	6r	6r	.	.	.	.	.	.	.	.	.	.	.
.	.	.	.	.	.	.	.	.	.	.	.	.	.	.	.	.	.	.	.	.	.	8eJ	.	8ggJ 8ddd	.
*v	*v	*	*	*	*	*	*	*	*	*	*	*	*	*	*	*	*	*	*	*	*	*	*	*	*
=	=	=	=	=	=	=	=	=	=	=	=	=	=	=	=	=	=	=	=	=	=	=	=	=
*-	*-	*-	*-	*-	*-	*-	*-	*-	*-	*-	*-	*-	*-	*-	*-	*-	*-	*-	*-	*-	*-	*-	*-	*-
!!!system-decoration: [(s1,s2,s3,s4)][(s5)][({(s6,s7)})][([(s8,s9)][(s10,s11)]s12,s13)]
!!!system-decoration: [(s1,s2,s3,s4)][(s5)]{(s6,s7)}[(s8,s9,s10,s11,s12,s13)]
!!!Xfilter: autobeam
!!!RDF**kern: < = below
!!!RDF**kern: > = above
!!!CDT: 1890/12/08-1959/08/28
!!!CBL: Polička, Bohemia
!!!CDL: Liestal, Switzerland
!!!CNT: Czech
!!!AGN: Orchestral
!!!MCN: Maixner, V.
!!!MDT: 1924/09/11
!!!MGN: unknown
!!!MLC: Prague, Czechia
!!!MPD: 1924
!!!MPN:
!!!ODT: 1921
!!!PDT: 1967
!!!excerpt-start-measure: 32
!!!excerpt-end-measure: 45
!!!excerpt-start-time:
!!!excerpt-end-time:
!!!EEV: 2020/01/27
!!!EED2: Bryan Bell
!!!EEV2: 2022/12/14
!!!EED3: Bryan Bell
!!!EEV3: 2023/06/02
!!!Suter_Work_ID: Mau-4
!!!Suter_Example_Number: 527
!!!Suter_Example_ID: Mau-4^1/97/32-45
!!!Premiere_Location: Prague,Czech Republic
!!!Other_Tsigs: 3/4;2/4
!!!Full_Unit_Duration: 5:16
!!!First_Publication_Year: 1967
!!!First_Public_Performance_Year: 1924
!!!Example_Total_Measures: 14
!!!Example_Timestamp_Duration: 13
!!!Example_Start_Tsig_Type: changing
!!!Example_Start_Tsig_Mean_Beat_Rate: 161.5
!!!Example_Start_Tsig_Beat_Rate: 129;194
!!!Example_Start_Tsig_Beat: quarter;quarter
!!!Example_Start_Tsig: 2/4;3/4
!!!Example_Start_Timestamp: 0:54
!!!Example_Start_Tempo_Expression: [Poco meno (Allegro moderato)]
!!!Example_Start_Notated_Beat_Rate: {65};{65}
!!!Example_Start_Notated_Beat: {half};{dotted-half}
!!!Example_Start_Measure: 32
!!!Example_Metadata_Validated: Y
!!!Example_End_Timestamp: 1:07
!!!Example_End_Measure: 45
!!!Example_Dataset: T
!!!Editorial_Comments: ^1 = Orchestral Suite No. 1. No notated tempo. Example Start Notated Beat and Example Start Notated Beat Rate {half;dotted-half=65;65} calculated from recording (https://youtu.be/azC32AuN0bY). Example Start Tempo Expression [Poco meno (Allegro moderato)] based on most recent notated tempo expression (SWFU, m. 26).
!!!Death_Place: Liestal,Switzerland
!!!Death_Date: 28-Aug-1959
!!!Changing_Tsig: yes
!!!Birth_Place: Polička,Bohemia
!!!Birth_Date: 8-Dec-1890
!!!Audio_Example_Quarter_Note_Tempo:
!!!Audio_Example_Duration:
!!!ONB: Converted from MusicXML on 2020/01/27
